Papirus/24x24/apps/borderlands-the-pre-sequel.svg

<svg width="24" height="24" version="1" xmlns="http://www.w3.org/2000/svg">
 <rect transform="scale(-1,1)" x="-22" y="2" width="20" height="20" rx="10" ry="10" style="fill:#5f89c9"/>
 <path d="m12 2c5.54 0 10 4.46 10 10 0 0.084-4e-3 0.1665-0.0058 0.25-0.1324-5.423-4.5382-9.75-9.99405-9.75s-9.862 4.32695-9.994 9.75c-2e-3 -0.08343-0.0059-0.166065-0.0059-0.25 0-5.54 4.46-10 10-10z" style="fill:#ffffff;opacity:.1"/>
 <path d="m21.99415 12.25c0.00205 0.0835 0.00585 0.166 0.00585 0.25 0 5.54-4.46 10-10 10s-10-4.46-10-10c0-0.08394 0.0038-0.16657 0.0059-0.25 0.132 5.423 4.538 9.75 9.994 9.75s9.862-4.327 9.994-9.75z" style="opacity:.2"/>
 <path d="m10.340235 4.6759443c0.844534-0.1810075 1.726951-0.2232789 2.58896-0.1225155 1.25088 0.1462027 2.462062 0.5927472 3.513339 1.2951287 1.039224 0.6942685 1.892589 1.609554 2.507581 2.688408 0.23563 0.4133335 0.436549 0.854339 0.596981 1.311512 0.112146 0.3198925 0.214538 0.6900005 0.284702 1.0265905 0.364759 1.753563 0.132948 3.561906-0.663149 5.16961-0.0575 0.11607-0.05923 0.119331-0.06428 0.116524-0.0055-0.0024-0.03159-0.03983-0.401993-0.562623-1.395-1.968941-3.27911-4.654534-5.488879-7.821337-0.673448-0.9650665-0.860115-1.2320275-0.89391-1.2825795-0.209591-0.3136285-0.424003-0.544074-0.665262-0.71458-0.05788-0.040815-0.199774-0.121956-0.262792-0.1501755-0.290327-0.130073-0.597607-0.1683465-0.942314-0.1161505-0.09526 0.01442-0.156185 0.027515-0.264684 0.056582-0.108499 0.02906-0.167836 0.04827-0.257522 0.083303-0.324632 0.127096-0.572536 0.314097-0.758867 0.5718545-0.04045 0.05596-0.12285 0.197161-0.152476 0.2614155-0.123659 0.268259-0.19404 0.574836-0.218745 0.951383-0.0097 0.14613-0.145754 1.7045105-0.248977 2.8520005-0.160703 1.786371-0.315814 3.439181-0.580408 6.176776-0.13381 1.384046-0.213569 2.216938-0.249222 2.598075-0.0083 0.08963-0.01603 0.165252-0.0171 0.167858-0.0032 0.0063-0.0052 0.0057-0.06862-0.03509-0.384955-0.247581-0.77058-0.547972-1.111808-0.866139-0.879724-0.820227-1.556641-1.828875-1.987615-2.961373-0.105977-0.278631-0.176532-0.498278-0.25787-0.801748-0.04934-0.184111-0.06978-0.281118-0.104702-0.436966-0.319953-1.5229-0.188237-3.096363 0.381311-4.5498475 0.232015-0.591993 0.54206-1.168082 0.909253-1.689212 0.994649-1.4115355 2.40387-2.4551975 4.038961-2.9906858 0.261155-0.0855033 0.568689-0.1680076 0.840104-0.2259946zm0.218453 2.1300032c0.604973-0.062863 0.992538 0.3644495 1.32331 0.8142565 1.566078 2.711602 3.235481 5.648283 4.929608 8.671059 0.487161 0.869208 0.964587 1.724456 0.966355 1.731051 0.0014 0.0053-0.01944 0.02872-0.102616 0.112471-0.954765 0.962444-2.135788 1.662548-3.440647 2.040749-0.163081 0.0471-0.160017 0.04612-0.31368 0.08403-0.355082 0.0872-0.665679 0.144962-1.005719 0.185381-1.010829 0.120145-2.02516 0.0434-3.010428-0.227687-0.03907-0.01075-0.07189-0.02171-0.07312-0.02339-8.5e-4 -0.0032-0.0066-0.263389-0.01821-1.108482-0.0452-3.299375-0.07049-6.715176-0.07423-9.9914985 0.05329-0.9870195 0.0057-2.0148445 0.819376-2.287947z" style="opacity:.2"/>
 <path d="m10.340235 4.1759437c0.844534-0.1810074 1.726951-0.2232789 2.58896-0.1225155 1.25088 0.1462027 2.462062 0.5927472 3.513339 1.2951288 1.039224 0.6942685 1.892589 1.609554 2.507581 2.688408 0.23563 0.4133335 0.436549 0.854339 0.596981 1.311512 0.112146 0.3198925 0.214538 0.69 0.284702 1.02659 0.364759 1.753563 0.132948 3.561906-0.663149 5.169611-0.0575 0.116069-0.05923 0.11933-0.06428 0.116524-0.0055-0.0024-0.03159-0.03982-0.401993-0.562624-1.395-1.968941-3.27911-4.654534-5.488879-7.8213365-0.673448-0.9650665-0.860115-1.2320275-0.89391-1.2825795-0.209591-0.3136285-0.424003-0.544074-0.665262-0.71458-0.05788-0.040815-0.199774-0.121956-0.262792-0.1501755-0.290327-0.1300729-0.597607-0.1683467-0.942314-0.1161505-0.09526 0.01442-0.156185 0.027515-0.264684 0.056582-0.108499 0.02906-0.167836 0.04827-0.257522 0.083304-0.324632 0.127096-0.572536 0.314097-0.758867 0.5718545-0.04045 0.05596-0.12285 0.197161-0.152476 0.2614155-0.123659 0.268259-0.19404 0.574836-0.218745 0.951383-0.0097 0.14613-0.145754 1.7045105-0.248977 2.852-0.160703 1.786371-0.315814 3.439181-0.580408 6.176777-0.13381 1.384047-0.213569 2.216938-0.249222 2.598075-0.0083 0.08963-0.01603 0.165252-0.0171 0.167859-0.0032 0.0063-0.0052 0.0057-0.06862-0.03509-0.384955-0.247581-0.77058-0.547973-1.111808-0.866139-0.879724-0.820227-1.556641-1.828875-1.987615-2.961373-0.105977-0.278632-0.176532-0.498278-0.25787-0.80175-0.04934-0.18411-0.06978-0.281117-0.104702-0.436966-0.319953-1.522899-0.188237-3.096362 0.381311-4.549847 0.232015-0.591994 0.54206-1.168083 0.909253-1.689213 0.994649-1.4115355 2.40387-2.4551975 4.038961-2.9906859 0.261155-0.0855033 0.568689-0.1680076 0.840104-0.2259946zm0.218453 2.1300033c0.604973-0.062863 0.992538 0.3644495 1.32331 0.8142565 1.566078 2.7116015 3.235481 5.6482835 4.929608 8.6710585 0.487161 0.869208 0.964587 1.724456 0.966355 1.731051 0.0014 0.0053-0.01944 0.02872-0.102616 0.112471-0.954765 0.962444-2.135788 1.662548-3.440647 2.04075-0.163081 0.0471-0.160017 0.04612-0.31368 0.08403-0.355082 0.0872-0.665679 0.144962-1.005719 0.185381-1.010829 0.120145-2.02516 0.0434-3.010428-0.227687-0.03907-0.01075-0.07189-0.02171-0.07312-0.02339-8.5e-4 -0.0032-0.0066-0.263389-0.01821-1.108482-0.0452-3.299375-0.07049-6.715176-0.07423-9.991498 0.05329-0.9870195 0.0057-2.0148445 0.819376-2.287947z" style="fill:#f7b400"/>
 <path d="m12.279297 4.0048828c0.217142 0.00738 0.433911 0.023638 0.649414 0.048828 1.25088 0.1462027 2.462395 0.5925403 3.513672 1.2949222 1.039224 0.6942685 1.89282 1.6096225 2.507812 2.6884765 0.23563 0.4133335 0.436248 0.8543505 0.59668 1.3115235 0.112146 0.3198925 0.214992 0.689777 0.285156 1.026367 0.12446 0.598335 0.174302 1.202767 0.161133 1.803711-0.017859-0.435408-0.071153-0.871136-0.161133-1.303711-0.070164-0.33659-0.17301-0.706475-0.285156-1.026367-0.160432-0.457173-0.36105-0.89819-0.59668-1.3115235-0.614992-1.078854-1.468588-1.994208-2.507812-2.6884765-1.051277-0.7023815-2.262792-1.1487194-3.513672-1.2949221-0.862009-0.1007634-1.744334-0.058937-2.588867 0.1220703-0.271416 0.057987-0.578689 0.1410592-0.839844 0.2265625-1.635091 0.5354883-3.044414 1.5786988-4.039062 2.9902343-0.367195 0.52113-0.677167 1.0974595-0.90918 1.689453-0.334455 0.853528-0.514254 1.748651-0.543945 2.650391-0.032286-1.069996 0.147677-2.139114 0.543945-3.150391 0.232013-0.5919935 0.541985-1.168323 0.90918-1.689453 0.994648-1.4115355 2.403971-2.4547459 4.039062-2.9902343 0.261155-0.0855033 0.568428-0.1685755 0.839844-0.2265625 0.6334-0.1357556 1.288025-0.1930344 1.939453-0.1708984zm-1.503907 2.2998047c0.48399 0.045825 0.81702 0.4218485 1.106446 0.8154295 1.566078 2.7116015 3.23556 5.648123 4.929687 8.670899 0.487161 0.869207 0.965029 1.724849 0.966797 1.731445 0.0014 0.0053-0.01936 0.02856-0.102539 0.112304-0.02403 0.02423-0.0499 0.04642-0.07422 0.07031-0.131019-0.236479-0.392121-0.704086-0.790037-1.414063-1.694128-3.022775-3.36361-5.959296-4.929688-8.670898-0.330773-0.449807-0.71827-0.877316-1.323242-0.814453-0.802645 0.269385-0.767352 1.2735125-0.817383 2.248047-2.64e-4 -0.1516495-0.0018-0.3088795-0.0019-0.459961 0.05329-0.9870195 0.0056-2.0149835 0.819336-2.288086 0.07562-0.00786 0.147655-0.00753 0.216796-1e-3z" style="fill:#ffffff;opacity:.2"/>
</svg>

<svg xmlns="http://www.w3.org/2000/svg" width="24" height="24" version="1">
 <circle style="opacity:0.2" cx="12" cy="12.5" r="10"/>
 <circle style="fill:#5f89c9" cx="12" cy="12" r="10"/>
 <path style="opacity:0.2" d="M 10.34,4.676 C 11.185,4.495 12.067,4.4528 12.929,4.5535 14.18,4.6997 15.391,5.1463 16.443,5.8487 17.482,6.5429 18.335,7.4582 18.95,8.5371 19.186,8.9504 19.387,9.3914 19.547,9.8486 19.659,10.168 19.762,10.538 19.832,10.875 20.197,12.629 19.965,14.437 19.169,16.045 L 19.104,16.161 12.32,6.4948 C 12.11,6.1811 11.896,5.9507 11.654,5.7802 11.596,5.7394 11.455,5.6582 11.392,5.63 11.101,5.4999 10.794,5.4617 10.449,5.5139 10.224,5.548 10.08,5.5943 9.927,5.6537 9.6024,5.7808 9.3545,5.9678 9.1681,6.2256 9.1277,6.2816 9.0453,6.4228 9.0157,6.487 8.892,6.7553 8.8216,7.0618 8.7969,7.4384 L 7.7012,19.233 7.6326,19.198 C 7.2476,18.95 6.862,18.65 6.5208,18.332 5.6411,17.512 4.9641,16.503 4.5332,15.37 4.3842,14.979 4.2453,14.466 4.1706,14.132 3.8507,12.609 3.9824,11.035 4.5519,9.5819 4.7839,8.9899 5.094,8.4139 5.4612,7.8927 6.4558,6.4812 7.865,5.4375 9.5001,4.902 9.7613,4.8165 10.069,4.734 10.34,4.676 Z M 10.559,6.806 C 11.164,6.7432 11.551,7.1705 11.882,7.6203 L 17.778,18.022 17.675,18.135 C 16.721,19.097 15.54,19.797 14.235,20.176 13.878,20.279 13.42,20.386 12.915,20.445 11.904,20.565 10.89,20.488 9.9049,20.217 L 9.8318,20.194 9.7393,9.094 C 9.7926,8.107 9.745,7.0791 10.559,6.806 Z"/>
 <path style="fill:#f7b400" d="M 10.34,4.1759 C 11.185,3.9949 12.067,3.9527 12.929,4.0534 14.18,4.1996 15.391,4.6462 16.443,5.3486 17.482,6.0428 18.335,6.9581 18.95,8.037 19.186,8.4503 19.387,8.8913 19.547,9.3485 19.659,9.6684 19.762,10.038 19.832,10.375 20.197,12.129 19.965,13.937 19.169,15.545 L 19.104,15.661 12.32,5.9947 C 12.11,5.681 11.896,5.4506 11.654,5.2801 11.596,5.2393 11.455,5.1581 11.392,5.1299 11.101,4.9998 10.794,4.9616 10.449,5.0138 10.224,5.0479 10.08,5.0942 9.927,5.1536 9.6024,5.2807 9.3545,5.4677 9.1681,5.7255 9.1277,5.7815 9.0453,5.9227 9.0157,5.9869 8.892,6.2552 8.8216,6.5617 8.7969,6.9383 L 7.7012,18.733 7.6326,18.698 C 7.2476,18.45 6.862,18.15 6.5208,17.832 5.6411,17.012 4.9641,16.003 4.5332,14.87 4.3842,14.479 4.2453,13.966 4.1706,13.632 3.8507,12.109 3.9824,10.535 4.5519,9.0818 4.7839,8.4898 5.094,7.9138 5.4612,7.3926 6.4558,5.9811 7.865,4.9374 9.5001,4.4019 9.7613,4.3164 10.069,4.2339 10.34,4.1759 Z M 10.559,6.3059 C 11.164,6.2431 11.551,6.6704 11.882,7.1202 L 17.778,17.522 17.675,17.635 C 16.721,18.597 15.54,19.297 14.235,19.676 13.878,19.779 13.42,19.886 12.915,19.945 11.904,20.065 10.89,19.988 9.9049,19.717 L 9.8318,19.694 9.7393,8.5939 C 9.7926,7.6069 9.745,6.579 10.559,6.3059 Z"/>
 <path style="opacity:0.2;fill:#ffffff" d="M 12,2 A 10,10 0 0 0 2,12 10,10 0 0 0 2.0098,12.293 10,10 0 0 1 12,2.5 10,10 0 0 1 21.99,12.207 10,10 0 0 0 22,12 10,10 0 0 0 12,2 Z"/>
 <path style="opacity:0.2;fill:#ffffff" d="M 12.279,4.0039 C 11.628,3.9818 10.974,4.04 10.34,4.1758 10.069,4.2338 9.7612,4.3168 9.5,4.4023 7.8649,4.9378 6.4555,5.9811 5.4609,7.3926 5.0937,7.9138 4.7847,8.49 4.5527,9.082 4.1213,10.183 3.9424,11.353 4.0195,12.518 4.0165,11.519 4.183,10.525 4.5527,9.582 4.7847,8.99 5.0937,8.4138 5.4609,7.8926 6.4555,6.4811 7.8649,5.4378 9.5,4.9023 9.7612,4.8168 10.069,4.7338 10.34,4.6758 11.185,4.4948 12.068,4.452 12.93,4.5527 14.181,4.6989 15.391,5.1472 16.443,5.8496 17.482,6.5438 18.334,7.4582 18.949,8.5371 19.185,8.9504 19.387,9.3905 19.547,9.8477 19.659,10.167 19.762,10.538 19.832,10.875 19.922,11.308 19.974,11.744 19.992,12.18 20.005,11.578 19.957,10.974 19.832,10.375 19.762,10.038 19.659,9.6676 19.547,9.3477 19.387,8.8905 19.185,8.4504 18.949,8.0371 18.334,6.9582 17.482,6.0419 16.443,5.3477 15.391,4.6453 14.181,4.1989 12.93,4.0527 12.714,4.0276 12.496,4.0113 12.279,4.0039 Z M 10.559,6.3066 C 9.7446,6.5797 9.7935,7.6068 9.7402,8.5938 L 9.7441,9.0195 C 9.7917,8.056 9.7652,7.0728 10.559,6.8066 11.164,6.7438 11.552,7.1713 11.883,7.6211 L 17.598,17.705 C 17.623,17.68 17.651,17.66 17.676,17.635 L 17.777,17.521 11.883,7.1211 C 11.552,6.6713 11.164,6.2438 10.559,6.3066 Z"/>
</svg>
